src/status/16/strawberry-panel-grey.svg

<svg width="16" height="16" version="1.1" viewBox="0 0 16 16" xmlns="http://www.w3.org/2000/svg">
 <g id="surface1">
  <path transform="matrix(.105593 .0609651 -.0609651 .105593 6.491636 -.958545)" d="m9.680602 34.378176c4.152-2.80413 8.204225-3.922938 12.264199-4.195369-3.625588-3.011838-6.355069-7.354911-7.793733-13.627045-0.016019-0.027745-0.032038-0.05549-0.020311-0.099254-0.19453-0.849518 0.3143-1.6982 1.191563-1.908749 3.171821-0.721478 6.474097-0.704418 9.858772-0.032053 1.873255 0.361204 3.759388 0.936935 5.697871 1.667409-0.762622-1.705318-1.298992-3.467278-1.461801-5.222957-0.347916-3.16554 0.321308-6.363433 2.214764-9.491285 0.288023-0.462242 0.771413-0.778326 1.359501-0.784923 3.14324-0.002099 5.931556 1.495495 8.386097 3.888675 1.907913 1.894924 3.635642 4.374796 5.133978 7.09809 1.100579-2.70707 2.536402-5.089787 4.288309-6.989114 2.428358-2.585833 5.429102-4.244357 9.03542-4.6617933 0.66703-0.1261617 1.375835 0.2044723 1.688778 0.8746433 1.3393 2.704135 1.782177 5.777855 1.530279 8.993755-0.161545 2.090922-0.604833 4.270523-1.278665 6.435258 1.35636-0.598141 2.82056-1.073577 4.380872-1.382543 3.033096-0.641384 6.462371-0.660654 10.303842-0.030065l0.071509-0.004293c0.854963 0.135269 1.462526 0.931286 1.343277 1.813994-0.859351 6.008194-3.394917 10.394621-6.981129 13.537971 3.279976 0.362878 6.718152 1.448275 10.642337 3.695818 1.485979 0.843758 2.837525 1.839119 4.022603 2.930592 1.244859 1.130945 2.295505 2.374021 3.151935 3.729229 3.67344 5.721734 3.935407 13.672072 2.413951 21.801237-2.010496 10.742111-7.138476 21.915373-11.334128 28.296088-3.449997 5.173338-7.714333 10.409914-12.97979 15.706589-5.237713 5.280656-11.476547 10.62141-18.8435 16.058592-0.756546 0.547781-1.734215 0.520352-2.467624 0.018955-7.669338-5.338324-14.477432-10.914941-20.368792-16.761889-5.907378-5.874694-10.870278-12.035737-14.789444-18.503443-4.795909-7.922167-10.060767-20.308756-10.333419-31.545351-0.22050793-8.455192 2.2957891-16.270893 9.6724791-21.306769zm5.40674 21.922996c1.98758-2.516312 2.695754-4.108978 2.685701-5.471935 0.001673-1.406721-0.974323-2.840871-2.683098-2.853118-1.736519 0.003772-2.529079 1.386205-2.530752 2.792925-0.001673 1.406721 0.567571 2.52081 2.528149 5.532128zm39.164314 49.636471c2.015326-2.532331 2.695755-4.108978 2.697428-5.515699 0.017691-1.378976-0.974323-2.840871-2.683098-2.853117-1.736519 0.003771-2.540806 1.429967-2.542478 2.836688 0.026072 1.390702 0.595316 2.504791 2.528148 5.532128zm-15.239407-0.893677c2.015326-2.532331 2.695755-4.108977 2.697428-5.515698s-0.974323-2.840871-2.683098-2.853118c-1.736519 0.003772-2.540806 1.429968-2.514734 2.82067-0.001672 1.406721 0.567572 2.52081 2.500404 5.548146zm-7.76201-14.533205c2.015325-2.532331 2.695754-4.108978 2.697427-5.515699 0.001673-1.40672-0.974323-2.84087-2.710842-2.837098-1.708775-0.012247-2.52908 1.386204-2.530753 2.792925 0.026072 1.390701 0.611335 2.532536 2.544168 5.559872zm30.915819-0.018687c1.987581-2.516312 2.695755-4.108978 2.697428-5.515698 0.001673-1.406721-0.974323-2.840871-2.710843-2.837099-1.736519 0.003772-2.513061 1.413949-2.514733 2.82067-0.001673 1.40672 0.567571 2.52081 2.528148 5.532127zm-15.675055-1.456008c1.971561-2.544057 2.695754-4.108977 2.697427-5.515698s-0.974323-2.840871-2.710842-2.837099-2.52908 1.386204-2.530753 2.792925 0.58359 2.548555 2.544168 5.559872zm24.170112-13.880885c2.015326-2.532331 2.723499-4.124997 2.713446-5.487954 0.001673-1.40672-0.974323-2.84087-2.683097-2.853117-1.736519 0.003772-2.52908 1.386204-2.530753 2.792925-0.001673 1.40672 0.567572 2.52081 2.500404 5.548146zm-14.636452-1.130818c1.98758-2.516312 2.695754-4.108978 2.697427-5.515698 0.001673-1.406721-0.974323-2.840871-2.710842-2.837099-1.692755 0.015498-2.513061 1.413949-2.514734 2.82067-0.017692 1.378975 0.567571 2.52081 2.528149 5.532127zm-17.496483 0.002541c2.015326-2.532331 2.695755-4.108977 2.697428-5.515698s-0.974323-2.840871-2.710843-2.837099c-1.708774-0.012247-2.513061 1.413949-2.514734 2.82067-0.017691 1.378976 0.567572 2.52081 2.528149 5.532127zm-15.243384-0.003534c2.015326-2.532331 2.695755-4.108978 2.713446-5.487954 0.001673-1.406721-0.974323-2.840871-2.683097-2.853118-1.736519 0.003772-2.556825 1.402223-2.530753 2.792925-0.001672 1.406721 0.567572 2.52081 2.500404 5.548147zm54.139039-17.718112c1.98758-2.516312 2.695754-4.108978 2.713446-5.487954-0.026072-1.390702-1.018087-2.852597-2.710842-2.837099-1.736519 0.003772-2.52908 1.386204-2.530753 2.792925s0.567571 2.52081 2.528149 5.532128zm-15.342638 0.016777c2.015326-2.532332 2.695755-4.108978 2.697428-5.515699 0.001672-1.406721-0.974324-2.840871-2.710843-2.837099-1.708774-0.012247-2.513061 1.413949-2.530752 2.792925 0.026072 1.390702 0.58359 2.548555 2.544167 5.559873zm-14.798313-0.001547c1.98758-2.516312 2.695754-4.108977 2.697427-5.515698-0.026072-1.390702-1.002068-2.824852-2.710842-2.837099-1.736519 0.003772-2.52908 1.386204-2.530753 2.792925s0.58359 2.548555 2.544168 5.559872zm-17.210448-0.014629c1.987581-2.516313 2.695754-4.108978 2.713446-5.487954 0.001673-1.406721-0.990342-2.868616-2.710842-2.837099-1.736519 0.003772-2.52908 1.386204-2.530753 2.792925s0.567571 2.52081 2.528149 5.532128zm-1.943549-25.920157c2.194468 0.212742 4.397521 0.568502 6.644339 0.935988 3.940724 0.610277 8.056504 1.267459 12.316137 1.212695 4.088872-0.030159 7.772143-0.12209 11.194821-0.729448 2.485631-0.43628 4.837668-1.424318 7.209179-1.609742 0.360684-0.208245 0.737387-0.388744 1.054307-0.608715 3.827646-2.468887 6.731645-6.217181 7.907079-11.741986-2.846631-0.317125-5.39749-0.250114-7.680322 0.217051-2.751355 0.552705-5.094806 1.68376-7.066683 3.266167-0.685038 0.543488-1.694744 0.460569-2.238232-0.224468-0.387593-0.479097-0.453972-1.106656-0.214005-1.652133 1.412055-3.256839 2.386472-6.630939 2.642663-9.775331l-0.016019-0.027745c0.15296-2.233939-0.04733-4.374906-0.779067-6.283024-2.310577 0.483185-4.315644 1.751812-5.960864 3.515555-2.171221 2.326391-3.797802 5.596109-4.790227 9.387535-0.222796 0.831511-1.110633 1.344113-1.969889 1.137336-0.453656-0.145006-0.860408-0.465066-1.0452-0.913278-1.71747-3.743575-3.779606-7.25116-6.190383-9.632614-1.616433-1.582296-3.37358-2.639428-5.270287-2.913105-1.158374 2.222528-1.52586 4.469346-1.293532 6.665802 0.26667 2.768526 1.55048 5.504698 3.50132 8.114709 0.531762 0.728801 0.389061 1.699036-0.295977 2.242524-0.550605 0.391885-1.210202 0.402775-1.743952 0.119045-3.257992-1.670345-6.414426-2.844422-9.465009-3.450723-2.410146-0.458154-4.72732-0.563057-6.963247-0.270946 1.893472 6.675429 5.515083 10.577409 10.21843 12.893004 0.131291 0.035178 0.218818 0.058631 0.29462 0.125847zm35.024277 4.342078c-4.986967 1.806465-10.678762 2.392154-16.33025 2.214701-5.134908-0.179758-10.068168-0.58692-14.500031-1.727492-7.141759-1.09272-13.752908-1.714928-20.234328 2.693073-5.986305 4.048153-7.991782 10.570102-7.852836 17.666629 0.280921 10.417963 5.212525 22.035127 9.720095 29.457886 3.742959 6.162511 8.474162 12.050399 14.165862 17.679681 5.372476 5.332673 11.594471 10.470816 18.550711 15.406996 6.677623-4.965203 12.32638-9.85429 17.117033-14.691863 5.06381-5.069271 9.181988-10.110481 12.430337-15.056414 3.986571-6.038039 8.823387-16.562278 10.725208-26.723735 1.334991-7.170655 1.208923-14.052657-1.784292-18.724376-0.696243-1.077759-1.515192-2.047679-2.456846-2.90976-0.957673-0.889825-2.038052-1.671812-3.273174-2.40145-6.123261-3.493444-11.094841-3.582534-16.277489-2.883876z" style="fill:rgb(18.039216%,20.392157%,25.098041%);stroke-width:2.7915;stroke:rgb(18.039216%,20.392157%,25.098041%)"/>
 </g>
</svg>

<svg xmlns="http://www.w3.org/2000/svg" xmlns:xlink="http://www.w3.org/1999/xlink" width="16" height="16" viewBox="0 0 16 16" version="1.1">
<g id="surface1">
<path style="fill-rule:nonzero;fill:rgb(18.039216%,20.392157%,25.098041%);fill-opacity:1;stroke-width:2.7915;stroke-linecap:butt;stroke-linejoin:miter;stroke:rgb(18.039216%,20.392157%,25.098041%);stroke-opacity:1;stroke-miterlimit:4;" d="M 9.680602 34.378176 C 13.832602 31.574046 17.884827 30.455238 21.944801 30.182807 C 18.319213 27.170969 15.589732 22.827896 14.151068 16.555762 C 14.135049 16.528017 14.11903 16.500272 14.130757 16.456508 C 13.936227 15.60699 14.445057 14.758308 15.32232 14.547759 C 18.494141 13.826281 21.796417 13.843341 25.181092 14.515706 C 27.054347 14.87691 28.94048 15.452641 30.878963 16.183115 C 30.116341 14.477797 29.579971 12.715837 29.417162 10.960158 C 29.069246 7.794618 29.73847 4.596725 31.631926 1.468873 C 31.919949 1.006631 32.403339 0.690547 32.991427 0.68395 C 36.134667 0.681851 38.922983 2.179445 41.377524 4.572625 C 43.285437 6.467549 45.013166 8.947421 46.511502 11.670715 C 47.612081 8.963645 49.047904 6.580928 50.799811 4.681601 C 53.228169 2.095768 56.228913 0.437244 59.835231 0.0198077 C 60.502261 -0.106354 61.211066 0.22428 61.524009 0.894451 C 62.863309 3.598586 63.306186 6.672306 63.054288 9.888206 C 62.892743 11.979128 62.449455 14.158729 61.775623 16.323464 C 63.131983 15.725323 64.596183 15.249887 66.156495 14.940921 C 69.189591 14.299537 72.618866 14.280267 76.460337 14.910856 L 76.531846 14.906563 C 77.386809 15.041832 77.994372 15.837849 77.875123 16.720557 C 77.015772 22.728751 74.480206 27.115178 70.893994 30.258528 C 74.17397 30.621406 77.612146 31.706803 81.536331 33.954346 C 83.02231 34.798104 84.373856 35.793465 85.558934 36.884938 C 86.803793 38.015883 87.854439 39.258959 88.710869 40.614167 C 92.384309 46.335901 92.646276 54.286239 91.12482 62.415404 C 89.114324 73.157515 83.986344 84.330777 79.790692 90.711492 C 76.340695 95.88483 72.076359 101.121406 66.810902 106.418081 C 61.573189 111.698737 55.334355 117.039491 47.967402 122.476673 C 47.210856 123.024454 46.233187 122.997025 45.499778 122.495628 C 37.83044 117.157304 31.022346 111.580687 25.130986 105.733739 C 19.223608 99.859045 14.260708 93.698002 10.341542 87.230296 C 5.545633 79.308129 0.280775 66.92154 0.00812293 55.684945 C -0.212385 47.229753 2.303912 39.414052 9.680602 34.378176 Z M 15.087342 56.301172 C 17.074922 53.78486 17.783096 52.192194 17.773043 50.829237 C 17.774716 49.422516 16.79872 47.988366 15.089945 47.976119 C 13.353426 47.979891 12.560866 49.362324 12.559193 50.769044 C 12.55752 52.175765 13.126764 53.289854 15.087342 56.301172 Z M 54.251656 105.937643 C 56.266982 103.405312 56.947411 101.828665 56.949084 100.421944 C 56.966775 99.042968 55.974761 97.581073 54.265986 97.568827 C 52.529467 97.572598 51.72518 98.998794 51.723508 100.405515 C 51.74958 101.796217 52.318824 102.910306 54.251656 105.937643 Z M 39.012249 105.043966 C 41.027575 102.511635 41.708004 100.934989 41.709677 99.528268 C 41.71135 98.121547 40.735354 96.687397 39.026579 96.67515 C 37.29006 96.678922 36.485773 98.105118 36.511845 99.49582 C 36.510173 100.902541 37.079417 102.01663 39.012249 105.043966 Z M 31.250239 90.510761 C 33.265564 87.97843 33.945993 86.401783 33.947666 84.995062 C 33.949339 83.588342 32.973343 82.154192 31.236824 82.157964 C 29.528049 82.145717 28.707744 83.544168 28.706071 84.950889 C 28.732143 86.34159 29.317406 87.483425 31.250239 90.510761 Z M 62.166058 90.492074 C 64.153639 87.975762 64.861813 86.383096 64.863486 84.976376 C 64.865159 83.569655 63.889163 82.135505 62.152643 82.139277 C 60.416124 82.143049 59.639582 83.553226 59.63791 84.959947 C 59.636237 86.366667 60.205481 87.480757 62.166058 90.492074 Z M 46.491003 89.036066 C 48.462564 86.492009 49.186757 84.927089 49.18843 83.520368 C 49.190103 82.113647 48.214107 80.679497 46.477588 80.683269 C 44.741069 80.687041 43.948508 82.069473 43.946835 83.476194 C 43.945162 84.882915 44.530425 86.024749 46.491003 89.036066 Z M 70.661115 75.155181 C 72.676441 72.62285 73.384614 71.030184 73.374561 69.667227 C 73.376234 68.260507 72.400238 66.826357 70.691464 66.81411 C 68.954945 66.817882 68.162384 68.200314 68.160711 69.607035 C 68.159038 71.013755 68.728283 72.127845 70.661115 75.155181 Z M 56.024663 74.024363 C 58.012243 71.508051 58.720417 69.915385 58.72209 68.508665 C 58.723763 67.101944 57.747767 65.667794 56.011248 65.671566 C 54.318493 65.687064 53.498187 67.085515 53.496514 68.492236 C 53.478822 69.871211 54.064085 71.013046 56.024663 74.024363 Z M 38.52818 74.026904 C 40.543506 71.494573 41.223935 69.917927 41.225608 68.511206 C 41.227281 67.104485 40.251285 65.670335 38.514765 65.674107 C 36.805991 65.66186 36.001704 67.088056 36.000031 68.494777 C 35.98234 69.873753 36.567603 71.015587 38.52818 74.026904 Z M 23.284796 74.02337 C 25.300122 71.491039 25.980551 69.914392 25.998242 68.535416 C 25.999915 67.128695 25.023919 65.694545 23.315145 65.682298 C 21.578626 65.68607 20.75832 67.084521 20.784392 68.475223 C 20.78272 69.881944 21.351964 70.996033 23.284796 74.02337 Z M 77.423835 56.305258 C 79.411415 53.788946 80.119589 52.19628 80.137281 50.817304 C 80.111209 49.426602 79.119194 47.964707 77.426439 47.980205 C 75.68992 47.983977 74.897359 49.366409 74.895686 50.77313 C 74.894013 52.179851 75.463257 53.29394 77.423835 56.305258 Z M 62.081197 56.322035 C 64.096523 53.789703 64.776952 52.213057 64.778625 50.806336 C 64.780297 49.399615 63.804301 47.965465 62.067782 47.969237 C 60.359008 47.95699 59.554721 49.383186 59.53703 50.762162 C 59.563102 52.152864 60.12062 53.310717 62.081197 56.322035 Z M 47.282884 56.320488 C 49.270464 53.804176 49.978638 52.211511 49.980311 50.80479 C 49.954239 49.414088 48.978243 47.979938 47.269469 47.967691 C 45.53295 47.971463 44.740389 49.353895 44.738716 50.760616 C 44.737043 52.167337 45.322306 53.309171 47.282884 56.320488 Z M 30.072436 56.305859 C 32.060017 53.789546 32.76819 52.196881 32.785882 50.817905 C 32.787555 49.411184 31.79554 47.949289 30.07504 47.980806 C 28.338521 47.984578 27.54596 49.36701 27.544287 50.773731 C 27.542614 52.180452 28.111858 53.294541 30.072436 56.305859 Z M 28.128887 30.385702 C 30.323355 30.598444 32.526408 30.954204 34.773226 31.32169 C 38.71395 31.931967 42.82973 32.589149 47.089363 32.534385 C 51.178235 32.504226 54.861506 32.412295 58.284184 31.804937 C 60.769815 31.368657 63.121852 30.380619 65.493363 30.195195 C 65.854047 29.98695 66.23075 29.806451 66.54767 29.58648 C 70.375316 27.117593 73.279315 23.369299 74.454749 17.844494 C 71.608118 17.527369 69.057259 17.59438 66.774427 18.061545 C 64.023072 18.61425 61.679621 19.745305 59.707744 21.327712 C 59.022706 21.8712 58.013 21.788281 57.469512 21.103244 C 57.081919 20.624147 57.01554 19.996588 57.255507 19.451111 C 58.667562 16.194272 59.641979 12.820172 59.89817 9.67578 L 59.882151 9.648035 C 60.035111 7.414096 59.834821 5.273129 59.103084 3.365011 C 56.792507 3.848196 54.78744 5.116823 53.14222 6.880566 C 50.970999 9.206957 49.344418 12.476675 48.351993 16.268101 C 48.129197 17.099612 47.24136 17.612214 46.382104 17.405437 C 45.928448 17.260431 45.521696 16.940371 45.336904 16.492159 C 43.619434 12.748584 41.557298 9.240999 39.146521 6.859545 C 37.530088 5.277249 35.772941 4.220117 33.876234 3.94644 C 32.71786 6.168968 32.350374 8.415786 32.582702 10.612242 C 32.849372 13.380768 34.133182 16.11694 36.084022 18.726951 C 36.615784 19.455752 36.473083 20.425987 35.788045 20.969475 C 35.23744 21.36136 34.577843 21.37225 34.044093 21.08852 C 30.786101 19.418175 27.629667 18.244098 24.579084 17.637797 C 22.168938 17.179643 19.851764 17.07474 17.615837 17.366851 C 19.509309 24.04228 23.13092 27.94426 27.834267 30.259855 C 27.965558 30.295033 28.053085 30.318486 28.128887 30.385702 Z M 63.153164 34.72778 C 58.166197 36.534245 52.474402 37.119934 46.822914 36.942481 C 41.688006 36.762723 36.754746 36.355561 32.322883 35.214989 C 25.181124 34.122269 18.569975 33.500061 12.088555 37.908062 C 6.10225 41.956215 4.096773 48.478164 4.235719 55.574691 C 4.51664 65.992654 9.448244 77.609818 13.955814 85.032577 C 17.698773 91.195088 22.429976 97.082976 28.121676 102.712258 C 33.494152 108.044931 39.716147 113.183074 46.672387 118.119254 C 53.35001 113.154051 58.998767 108.264964 63.78942 103.427391 C 68.85323 98.35812 72.971408 93.31691 76.219757 88.370977 C 80.206328 82.332938 85.043144 71.808699 86.944965 61.647242 C 88.279956 54.476587 88.153888 47.594585 85.160673 42.922866 C 84.46443 41.845107 83.645481 40.875187 82.703827 40.013106 C 81.746154 39.123281 80.665775 38.341294 79.430653 37.611656 C 73.307392 34.118212 68.335812 34.029122 63.153164 34.72778 Z M 63.153164 34.72778 " transform="matrix(0.105593,0.0609651,-0.0609651,0.105593,6.491636,-0.958545)"/>
</g>
</svg>
